<?xml version="1.0" encoding="UTF-8"?>
<map version="1.10" tiledversion="1.12.1" orientation="orthogonal" renderorder="right-down" width="64" height="64" tilewidth="8" tileheight="8" infinite="0" nextlayerid="5" nextobjectid="1">
 <editorsettings>
  <export target="GrassMap.json" format="json"/>
 </editorsettings>
 <tileset firstgid="1" name="Grass" tilewidth="8" tileheight="8" tilecount="186" columns="6">
  <image source="GrassTilemapOrganized.png" width="48" height="248"/>
  <wangsets>
   <wangset name="Grass" type="corner" tile="-1">
    <wangcolor name="Dark" color="#ff0000" tile="-1" probability="1"/>
    <wangcolor name="Light" color="#00ff00" tile="-1" probability="1"/>
    <wangcolor name="Sand" color="#0000ff" tile="-1" probability="1"/>
    <wangcolor name="Dirt" color="#ff7700" tile="-1" probability="1"/>
    <wangcolor name="GrassLowerLight" color="#00e9ff" tile="-1" probability="1"/>
    <wangcolor name="GrassLowerDark" color="#ff00d8" tile="-1" probability="1"/>
    <wangtile tileid="7" wangid="0,3,0,4,0,3,0,3"/>
    <wangtile tileid="8" wangid="0,3,0,4,0,4,0,3"/>
    <wangtile tileid="9" wangid="0,3,0,3,0,4,0,3"/>
    <wangtile tileid="10" wangid="0,4,0,3,0,4,0,4"/>
    <wangtile tileid="11" wangid="0,4,0,4,0,3,0,4"/>
    <wangtile tileid="12" wangid="0,3,0,3,0,3,0,3"/>
    <wangtile tileid="13" wangid="0,4,0,4,0,3,0,3"/>
    <wangtile tileid="14" wangid="0,4,0,4,0,4,0,4"/>
    <wangtile tileid="15" wangid="0,3,0,3,0,4,0,4"/>
    <wangtile tileid="16" wangid="0,3,0,4,0,4,0,4"/>
    <wangtile tileid="17" wangid="0,4,0,4,0,4,0,3"/>
    <wangtile tileid="19" wangid="0,4,0,3,0,3,0,3"/>
    <wangtile tileid="20" wangid="0,4,0,3,0,3,0,4"/>
    <wangtile tileid="21" wangid="0,3,0,3,0,3,0,4"/>
    <wangtile tileid="22" wangid="0,3,0,4,0,3,0,4"/>
    <wangtile tileid="23" wangid="0,4,0,3,0,4,0,3"/>
    <wangtile tileid="25" wangid="0,4,0,3,0,4,0,4"/>
    <wangtile tileid="26" wangid="0,4,0,3,0,3,0,4"/>
    <wangtile tileid="27" wangid="0,4,0,4,0,3,0,4"/>
    <wangtile tileid="28" wangid="0,3,0,4,0,3,0,3"/>
    <wangtile tileid="29" wangid="0,3,0,3,0,4,0,3"/>
    <wangtile tileid="30" wangid="0,4,0,4,0,4,0,4"/>
    <wangtile tileid="31" wangid="0,3,0,3,0,4,0,4"/>
    <wangtile tileid="32" wangid="0,3,0,3,0,3,0,3"/>
    <wangtile tileid="33" wangid="0,4,0,4,0,3,0,3"/>
    <wangtile tileid="34" wangid="0,4,0,3,0,3,0,3"/>
    <wangtile tileid="35" wangid="0,3,0,3,0,3,0,4"/>
    <wangtile tileid="37" wangid="0,3,0,4,0,4,0,4"/>
    <wangtile tileid="38" wangid="0,3,0,4,0,4,0,3"/>
    <wangtile tileid="39" wangid="0,4,0,4,0,4,0,3"/>
    <wangtile tileid="40" wangid="0,4,0,0,0,4,0,0"/>
    <wangtile tileid="41" wangid="0,0,0,4,0,0,0,4"/>
    <wangtile tileid="43" wangid="0,2,0,3,0,2,0,2"/>
    <wangtile tileid="44" wangid="0,2,0,3,0,3,0,2"/>
    <wangtile tileid="45" wangid="0,2,0,2,0,3,0,2"/>
    <wangtile tileid="46" wangid="0,3,0,2,0,3,0,3"/>
    <wangtile tileid="47" wangid="0,3,0,3,0,2,0,3"/>
    <wangtile tileid="48" wangid="0,2,0,2,0,2,0,2"/>
    <wangtile tileid="49" wangid="0,3,0,3,0,2,0,2"/>
    <wangtile tileid="50" wangid="0,3,0,3,0,3,0,3"/>
    <wangtile tileid="51" wangid="0,2,0,2,0,3,0,3"/>
    <wangtile tileid="52" wangid="0,2,0,3,0,3,0,3"/>
    <wangtile tileid="53" wangid="0,3,0,3,0,3,0,2"/>
    <wangtile tileid="55" wangid="0,3,0,2,0,2,0,2"/>
    <wangtile tileid="56" wangid="0,3,0,2,0,2,0,3"/>
    <wangtile tileid="57" wangid="0,2,0,2,0,2,0,3"/>
    <wangtile tileid="58" wangid="0,2,0,3,0,2,0,3"/>
    <wangtile tileid="59" wangid="0,3,0,2,0,3,0,2"/>
    <wangtile tileid="61" wangid="0,1,0,3,0,1,0,1"/>
    <wangtile tileid="62" wangid="0,1,0,3,0,3,0,1"/>
    <wangtile tileid="63" wangid="0,1,0,1,0,3,0,1"/>
    <wangtile tileid="64" wangid="0,3,0,1,0,3,0,3"/>
    <wangtile tileid="65" wangid="0,3,0,3,0,1,0,3"/>
    <wangtile tileid="66" wangid="0,1,0,1,0,1,0,1"/>
    <wangtile tileid="67" wangid="0,3,0,3,0,1,0,1"/>
    <wangtile tileid="68" wangid="0,3,0,3,0,3,0,3"/>
    <wangtile tileid="69" wangid="0,1,0,1,0,3,0,3"/>
    <wangtile tileid="70" wangid="0,1,0,3,0,3,0,3"/>
    <wangtile tileid="71" wangid="0,3,0,3,0,3,0,1"/>
    <wangtile tileid="73" wangid="0,3,0,1,0,1,0,1"/>
    <wangtile tileid="74" wangid="0,3,0,1,0,1,0,3"/>
    <wangtile tileid="75" wangid="0,1,0,1,0,1,0,3"/>
    <wangtile tileid="76" wangid="0,1,0,3,0,1,0,3"/>
    <wangtile tileid="77" wangid="0,3,0,1,0,3,0,1"/>
    <wangtile tileid="79" wangid="0,2,0,1,0,2,0,2"/>
    <wangtile tileid="80" wangid="0,2,0,1,0,1,0,2"/>
    <wangtile tileid="81" wangid="0,2,0,2,0,1,0,2"/>
    <wangtile tileid="82" wangid="0,1,0,2,0,1,0,1"/>
    <wangtile tileid="83" wangid="0,1,0,1,0,2,0,1"/>
    <wangtile tileid="84" wangid="0,2,0,2,0,2,0,2"/>
    <wangtile tileid="85" wangid="0,1,0,1,0,2,0,2"/>
    <wangtile tileid="86" wangid="0,1,0,1,0,1,0,1"/>
    <wangtile tileid="87" wangid="0,2,0,2,0,1,0,1"/>
    <wangtile tileid="88" wangid="0,2,0,1,0,1,0,1"/>
    <wangtile tileid="89" wangid="0,1,0,1,0,1,0,2"/>
    <wangtile tileid="91" wangid="0,1,0,2,0,2,0,2"/>
    <wangtile tileid="92" wangid="0,1,0,2,0,2,0,1"/>
    <wangtile tileid="93" wangid="0,2,0,2,0,2,0,1"/>
    <wangtile tileid="94" wangid="0,2,0,1,0,2,0,1"/>
    <wangtile tileid="95" wangid="0,1,0,2,0,1,0,2"/>
    <wangtile tileid="97" wangid="0,2,0,4,0,2,0,2"/>
    <wangtile tileid="98" wangid="0,2,0,4,0,4,0,2"/>
    <wangtile tileid="99" wangid="0,2,0,2,0,4,0,2"/>
    <wangtile tileid="100" wangid="0,4,0,2,0,4,0,4"/>
    <wangtile tileid="101" wangid="0,4,0,4,0,2,0,4"/>
    <wangtile tileid="102" wangid="0,2,0,2,0,2,0,2"/>
    <wangtile tileid="103" wangid="0,4,0,4,0,2,0,2"/>
    <wangtile tileid="104" wangid="0,4,0,4,0,4,0,4"/>
    <wangtile tileid="105" wangid="0,2,0,2,0,4,0,4"/>
    <wangtile tileid="106" wangid="0,2,0,4,0,4,0,4"/>
    <wangtile tileid="107" wangid="0,4,0,4,0,4,0,2"/>
    <wangtile tileid="109" wangid="0,4,0,2,0,2,0,2"/>
    <wangtile tileid="110" wangid="0,4,0,2,0,2,0,4"/>
    <wangtile tileid="111" wangid="0,2,0,2,0,2,0,4"/>
    <wangtile tileid="112" wangid="0,2,0,4,0,2,0,4"/>
    <wangtile tileid="113" wangid="0,4,0,2,0,4,0,2"/>
    <wangtile tileid="115" wangid="0,1,0,4,0,1,0,1"/>
    <wangtile tileid="116" wangid="0,1,0,4,0,4,0,1"/>
    <wangtile tileid="117" wangid="0,1,0,1,0,4,0,1"/>
    <wangtile tileid="118" wangid="0,4,0,1,0,4,0,4"/>
    <wangtile tileid="119" wangid="0,4,0,4,0,1,0,4"/>
    <wangtile tileid="120" wangid="0,1,0,1,0,1,0,1"/>
    <wangtile tileid="121" wangid="0,4,0,4,0,1,0,1"/>
    <wangtile tileid="122" wangid="0,4,0,4,0,4,0,4"/>
    <wangtile tileid="123" wangid="0,1,0,1,0,4,0,4"/>
    <wangtile tileid="124" wangid="0,1,0,4,0,4,0,4"/>
    <wangtile tileid="125" wangid="0,4,0,4,0,4,0,1"/>
    <wangtile tileid="127" wangid="0,4,0,1,0,1,0,1"/>
    <wangtile tileid="128" wangid="0,4,0,1,0,1,0,4"/>
    <wangtile tileid="129" wangid="0,1,0,1,0,1,0,4"/>
    <wangtile tileid="130" wangid="0,1,0,4,0,1,0,4"/>
    <wangtile tileid="131" wangid="0,4,0,1,0,4,0,1"/>
    <wangtile tileid="133" wangid="0,2,0,5,0,2,0,2"/>
    <wangtile tileid="134" wangid="0,2,0,5,0,5,0,2"/>
    <wangtile tileid="135" wangid="0,2,0,2,0,5,0,2"/>
    <wangtile tileid="136" wangid="0,5,0,2,0,5,0,5"/>
    <wangtile tileid="137" wangid="0,5,0,5,0,2,0,5"/>
    <wangtile tileid="139" wangid="0,5,0,5,0,2,0,2"/>
    <wangtile tileid="140" wangid="0,5,0,5,0,5,0,5"/>
    <wangtile tileid="141" wangid="0,2,0,2,0,5,0,5"/>
    <wangtile tileid="142" wangid="0,2,0,5,0,5,0,5"/>
    <wangtile tileid="143" wangid="0,5,0,5,0,5,0,2"/>
    <wangtile tileid="145" wangid="0,5,0,2,0,2,0,2"/>
    <wangtile tileid="146" wangid="0,5,0,2,0,2,0,5"/>
    <wangtile tileid="147" wangid="0,2,0,2,0,2,0,5"/>
    <wangtile tileid="148" wangid="0,2,0,5,0,2,0,5"/>
    <wangtile tileid="149" wangid="0,5,0,2,0,5,0,2"/>
    <wangtile tileid="151" wangid="0,5,0,5,0,5,0,5"/>
    <wangtile tileid="152" wangid="0,5,0,5,0,5,0,5"/>
    <wangtile tileid="153" wangid="0,6,0,6,0,6,0,6"/>
    <wangtile tileid="154" wangid="0,6,0,6,0,6,0,6"/>
    <wangtile tileid="157" wangid="0,5,0,5,0,5,0,5"/>
    <wangtile tileid="158" wangid="0,5,0,5,0,5,0,5"/>
    <wangtile tileid="159" wangid="0,6,0,6,0,6,0,6"/>
    <wangtile tileid="160" wangid="0,6,0,6,0,6,0,6"/>
   </wangset>
  </wangsets>
 </tileset>
 <layer id="1" name="Tile Layer 1" width="64" height="64">
  <data encoding="csv">
103,152,85,159,85,152,103,159,159,103,103,103,152,159,159,103,85,152,153,85,153,85,85,85,158,158,152,85,152,158,153,153,85,152,159,85,159,153,103,85,103,85,159,103,103,152,103,153,158,103,85,103,103,158,85,103,153,153,158,159,158,153,152,153,
153,85,85,103,103,158,152,159,152,152,85,152,152,103,159,159,85,85,103,158,158,152,153,158,153,103,103,153,153,158,152,152,152,153,158,153,103,103,85,103,103,85,158,85,103,153,152,153,159,152,85,103,103,158,153,85,158,153,103,85,85,152,159,103,
159,158,103,158,158,103,153,158,152,159,158,103,153,103,153,158,103,103,159,152,158,152,159,103,159,152,152,85,152,159,159,85,159,158,103,85,85,159,85,103,103,159,159,159,85,153,103,158,158,153,85,159,153,85,158,103,85,152,85,103,85,159,152,85,
158,153,153,159,153,85,153,153,158,158,85,103,152,103,159,85,85,152,153,152,152,158,85,152,103,153,152,152,152,153,85,159,159,159,158,158,103,158,159,159,153,158,158,153,159,85,103,153,159,158,158,158,85,85,152,158,152,153,158,152,152,159,158,103,
152,159,152,153,158,85,158,158,158,159,158,103,153,153,103,158,152,152,158,103,158,159,103,159,85,159,103,103,152,103,152,85,103,159,85,103,103,152,103,158,159,158,159,159,152,85,159,158,158,158,159,103,158,85,159,158,153,85,85,103,85,85,153,153,
103,159,152,159,152,152,153,152,158,153,85,153,153,152,103,158,103,152,103,158,85,158,158,153,158,152,159,152,152,103,85,159,103,103,103,85,152,159,85,103,103,153,152,153,159,159,152,158,158,85,153,103,103,153,158,152,158,159,153,152,85,103,159,153,
153,158,152,85,153,153,159,159,103,159,153,85,152,103,153,153,85,159,152,159,103,103,153,158,158,159,158,153,158,152,158,153,152,85,103,153,159,158,152,85,159,152,85,103,85,85,159,159,103,152,103,85,158,103,103,158,85,158,103,159,158,103,103,158,
158,153,153,85,153,159,153,152,159,103,85,103,158,85,103,152,85,152,85,159,85,152,159,159,103,158,103,103,159,103,103,158,158,159,159,152,103,152,85,152,158,103,159,152,103,153,153,153,158,103,153,153,153,85,159,159,159,159,158,103,153,158,159,153,
152,158,159,159,158,152,158,159,152,85,152,153,85,158,153,158,153,152,158,152,158,158,152,158,159,152,158,159,85,85,153,103,159,159,103,159,103,153,153,158,103,159,103,158,152,103,159,85,103,103,85,159,159,103,159,158,158,85,85,152,103,159,152,159,
152,103,159,153,152,158,103,85,85,103,152,85,85,85,159,159,158,103,158,153,159,103,158,103,85,152,103,158,153,153,159,85,103,153,152,85,159,85,103,85,103,159,158,153,85,152,85,103,158,159,153,85,85,152,85,153,158,159,158,152,158,103,85,152,
159,85,85,103,159,152,85,152,152,159,152,152,103,153,158,152,159,159,85,153,159,158,85,158,153,158,103,153,103,85,153,159,152,85,153,85,103,159,103,158,159,103,153,158,103,103,85,159,158,159,158,152,103,152,158,153,103,153,159,152,153,153,85,158,
152,153,85,152,103,85,103,159,152,152,159,134,81,81,135,135,81,81,135,135,81,81,135,135,81,81,135,135,81,81,135,135,81,81,135,135,81,81,135,135,81,81,135,135,81,81,135,135,81,81,135,135,82,158,103,85,103,159,152,158,159,159,152,103,
159,159,153,158,158,153,159,153,153,153,158,86,152,153,87,87,152,153,121,87,152,153,121,67,152,153,87,87,152,153,67,121,152,153,121,67,152,153,67,121,152,153,67,67,152,153,67,87,152,153,87,121,142,159,85,103,103,103,158,159,159,152,153,103,
85,159,159,152,159,152,152,158,153,159,153,86,158,159,160,161,158,159,160,161,158,159,160,161,158,159,160,161,158,159,160,161,158,159,160,161,158,159,160,161,158,159,160,161,158,159,160,161,158,159,160,161,142,85,153,103,103,85,85,103,159,153,152,152,
85,159,153,152,153,152,85,103,152,152,159,140,87,121,152,153,87,87,152,153,121,87,152,153,121,67,152,153,87,87,152,153,67,121,152,153,121,67,152,153,67,121,152,153,67,67,152,153,67,87,152,153,88,153,103,85,153,158,158,85,159,158,159,158,
153,153,85,158,103,159,159,152,153,159,159,140,160,161,158,159,160,161,158,159,160,161,158,159,160,161,158,159,160,161,158,159,160,161,158,159,160,161,158,159,160,161,158,159,160,161,158,159,160,161,158,159,88,159,153,152,103,85,103,103,158,152,85,153,
85,159,153,85,159,152,152,152,85,153,159,86,152,153,87,87,152,153,121,87,152,153,121,67,152,153,87,87,152,153,67,121,152,153,121,67,152,153,67,121,152,153,67,67,152,153,67,87,152,153,87,121,142,152,152,158,159,158,153,85,159,103,153,103,
153,85,153,158,85,103,153,153,152,153,159,86,158,159,160,161,158,159,160,161,158,159,160,161,158,159,160,161,158,159,160,161,158,159,160,161,158,159,160,161,158,159,160,161,158,159,160,161,158,159,160,161,142,103,158,103,85,85,159,85,85,159,158,153,
152,153,152,152,159,158,159,85,153,152,85,140,87,121,152,153,87,87,152,153,121,87,152,153,121,67,152,153,87,87,152,153,67,121,152,153,121,67,152,153,67,121,152,153,67,67,152,153,67,87,152,153,88,159,159,103,159,103,159,103,103,85,153,152,
153,152,85,103,85,159,85,103,159,158,158,140,160,161,158,159,160,161,158,159,160,161,158,159,160,161,158,159,160,161,158,159,160,161,158,159,160,161,158,159,160,161,158,159,160,161,158,159,160,161,158,159,88,152,85,153,103,153,85,152,85,159,85,159,
158,159,159,152,85,152,152,153,85,85,158,86,152,153,87,87,152,153,121,87,152,153,121,67,152,153,87,87,152,153,67,121,152,153,121,67,152,153,67,121,152,153,67,67,152,153,67,87,152,153,87,121,142,158,153,158,103,103,158,158,158,153,159,103,
153,153,152,152,158,159,153,158,103,153,158,86,158,159,160,161,158,159,160,161,158,159,160,161,158,159,160,161,158,159,160,161,158,159,160,161,158,159,160,161,158,159,160,161,158,159,160,161,158,159,160,161,142,158,159,103,152,159,158,153,158,158,85,153,
158,85,159,153,152,85,103,85,85,103,158,140,87,121,152,153,87,87,152,153,121,87,152,153,121,67,152,153,87,87,152,153,67,121,152,153,121,67,152,153,67,121,152,153,67,67,152,153,67,87,152,153,88,103,85,85,103,159,153,158,103,158,152,85,
153,153,153,103,152,103,85,158,159,152,152,140,160,161,158,159,160,161,158,159,160,161,158,159,160,161,158,159,160,161,158,159,160,161,158,159,160,161,158,159,160,161,158,159,160,161,158,159,160,161,158,159,88,152,103,159,153,85,158,103,103,158,159,159,
152,158,159,152,85,152,152,85,85,159,152,86,152,153,87,87,152,153,121,87,152,153,121,67,152,153,87,155,103,103,154,155,103,103,154,155,103,103,154,155,103,153,67,67,152,153,67,87,152,153,87,121,142,153,158,152,152,103,153,152,159,85,85,158,
158,158,153,158,153,152,152,159,153,152,158,86,158,159,160,161,158,159,160,161,158,159,160,161,158,159,160,161,103,103,160,116,99,99,117,117,99,99,117,118,103,159,160,161,158,159,160,161,158,159,160,161,142,85,103,159,103,153,152,85,103,158,158,85,
85,85,159,158,85,152,103,103,158,152,153,140,87,121,152,153,87,87,152,153,121,87,152,153,121,67,152,103,87,155,103,104,15,105,31,123,105,105,31,106,154,121,152,153,67,67,152,153,67,87,152,153,88,85,158,152,152,158,152,85,153,159,152,159,
159,152,152,103,158,152,103,158,159,152,159,140,160,161,158,159,160,161,158,159,160,161,158,159,160,161,158,103,160,161,103,104,123,123,123,105,15,31,123,106,160,161,158,159,160,161,158,159,160,161,158,159,88,152,153,153,152,159,153,159,85,152,153,159,
103,158,152,152,159,103,85,153,152,152,85,86,152,153,87,87,152,153,121,87,152,153,121,67,152,153,87,155,103,103,116,126,123,31,123,31,31,123,119,130,103,153,67,67,152,153,67,87,152,153,87,121,142,152,158,85,85,103,153,103,159,159,103,159,
152,152,85,158,152,153,103,103,158,85,152,86,158,159,160,161,158,159,160,161,158,159,160,161,158,159,160,161,103,103,122,105,15,31,123,15,15,101,130,155,103,159,160,161,158,159,160,161,158,159,160,161,142,152,158,153,85,152,85,153,103,103,153,152,
152,152,85,159,103,85,159,159,103,153,152,140,87,121,152,153,87,87,152,153,121,87,152,153,121,67,152,103,154,116,108,31,123,31,15,15,119,130,103,103,154,121,152,153,67,67,152,153,67,87,152,153,88,153,103,159,159,103,153,153,159,103,85,153,
85,85,103,85,153,85,159,159,158,159,85,140,160,161,158,159,160,161,158,159,160,161,158,159,160,161,158,103,160,122,105,123,105,15,101,111,130,161,103,103,160,161,158,159,160,161,158,159,160,161,158,159,88,103,103,103,85,153,103,153,103,153,103,85,
152,153,152,158,159,152,152,152,153,103,152,86,152,153,87,87,152,153,121,87,152,153,121,67,152,153,87,155,98,108,105,15,15,101,130,155,103,103,87,155,103,153,67,67,152,153,67,87,152,153,87,121,142,152,103,159,85,153,152,153,153,159,152,158,
103,158,158,153,159,103,159,158,159,85,153,86,158,159,160,161,158,159,160,161,158,159,160,161,158,159,160,161,104,105,31,15,15,106,160,161,103,103,160,161,103,159,160,161,158,159,160,161,158,159,160,161,142,85,85,152,103,153,159,158,103,103,103,159,
159,159,152,153,103,103,103,152,158,158,158,140,87,121,152,153,87,87,152,153,121,87,152,153,121,67,152,103,122,15,31,15,105,124,103,103,154,155,103,103,154,121,152,153,67,67,152,153,67,87,152,153,88,158,159,158,158,158,153,103,158,152,153,103,
85,153,159,153,85,159,85,152,152,152,152,140,160,161,158,159,160,161,158,159,160,161,158,159,160,161,158,103,122,15,123,123,105,124,103,103,160,161,103,103,160,161,158,159,160,161,158,159,160,161,158,159,88,103,103,158,152,158,153,159,152,153,85,152,
152,152,85,152,158,158,153,152,159,152,158,86,152,153,87,87,152,153,121,87,152,153,121,67,152,153,87,155,104,31,123,105,105,107,117,118,103,103,87,155,103,153,67,67,152,153,67,87,152,153,87,121,142,153,158,103,153,103,85,85,158,103,159,159,
103,158,152,85,152,153,152,159,152,103,152,86,158,159,160,161,158,159,160,161,158,159,160,161,158,159,160,161,104,15,31,15,31,105,105,124,103,103,160,161,103,159,160,161,158,159,160,161,158,159,160,161,142,152,85,152,85,152,153,103,153,152,153,152,
159,158,85,158,152,103,85,158,159,153,103,140,87,121,152,153,87,87,152,153,121,87,152,153,121,67,152,103,128,120,31,31,31,105,105,106,154,155,103,103,154,121,152,153,67,67,152,153,67,87,152,153,88,85,153,85,152,85,152,103,152,152,159,103,
152,159,85,103,152,153,153,152,152,153,159,140,160,161,158,159,160,161,158,159,160,161,158,159,160,161,158,103,160,128,102,15,31,123,101,112,160,161,103,103,160,161,158,159,160,161,158,159,160,161,158,159,88,103,153,103,85,153,159,153,152,159,103,103,
153,159,103,152,103,152,158,85,159,152,103,86,152,153,87,87,152,153,121,87,152,153,121,67,152,153,87,155,103,103,128,129,111,111,130,155,103,103,87,155,103,153,67,67,152,153,67,87,152,153,87,121,142,103,103,152,158,152,159,85,152,152,159,153,
85,153,153,85,103,158,152,153,152,85,158,86,158,159,160,161,158,159,160,161,158,159,160,161,158,159,160,161,103,103,160,161,103,103,160,161,103,103,160,161,103,159,160,161,158,159,160,161,158,159,160,161,142,103,152,85,152,85,152,152,158,159,152,152,
152,152,158,152,153,103,103,152,85,158,159,140,87,121,152,153,87,87,152,153,121,87,152,153,121,67,152,153,87,87,152,153,67,121,152,153,121,67,152,153,67,121,152,153,67,67,152,153,67,87,152,153,88,152,159,152,158,85,85,152,103,152,158,153,
85,158,152,153,158,152,159,159,152,153,152,140,160,161,158,159,160,161,158,159,160,161,158,159,160,161,158,159,160,161,158,159,160,161,158,159,160,161,158,159,160,161,158,159,160,161,158,159,160,161,158,159,88,158,152,158,103,103,159,153,152,153,159,153,
85,85,153,152,158,152,158,103,152,153,158,86,152,153,87,87,152,153,121,87,152,153,121,67,152,153,87,87,152,153,67,121,152,153,121,67,152,153,67,121,152,153,67,67,152,153,67,87,152,153,87,121,142,158,159,103,158,103,103,152,152,158,153,159,
158,153,158,152,152,158,103,103,103,159,85,86,158,159,160,161,158,159,160,161,158,159,160,161,158,159,160,161,158,159,160,161,158,159,160,161,158,159,160,161,158,159,160,161,158,159,160,161,158,159,160,161,142,158,103,85,152,159,158,159,85,103,152,85,
85,153,152,153,152,152,152,152,152,85,152,140,87,121,152,153,87,87,152,153,121,87,152,153,121,67,152,153,87,87,152,153,67,121,152,153,121,67,152,153,67,121,152,153,67,67,152,153,67,87,152,153,88,85,152,152,85,153,152,158,159,152,153,158,
153,152,152,152,152,158,153,159,153,159,158,140,160,161,158,159,160,161,158,159,160,161,158,159,160,161,158,159,160,161,158,159,160,161,158,159,160,161,158,159,160,161,158,159,160,161,158,159,160,161,158,159,88,158,153,152,158,159,152,153,85,85,103,159,
103,85,85,159,103,152,103,158,85,158,158,86,152,153,87,87,152,153,121,87,152,153,121,67,152,153,87,87,152,153,67,121,152,153,121,67,152,153,67,121,152,153,67,67,152,153,67,87,152,153,87,121,142,152,153,153,85,85,158,152,159,85,158,159,
152,85,85,153,103,152,152,152,159,152,158,86,158,159,160,161,158,159,160,161,158,159,160,161,158,159,160,161,158,159,160,161,158,159,160,161,158,159,160,161,158,159,160,161,158,159,160,161,158,159,160,161,142,159,152,153,158,103,85,153,85,159,85,153,
159,158,158,153,153,152,159,103,152,158,158,140,87,121,152,153,87,87,152,153,121,87,152,153,121,67,152,153,87,87,152,153,67,121,152,153,121,67,152,153,67,121,152,153,67,67,152,153,67,87,152,153,88,103,153,159,153,159,153,158,103,103,152,159,
158,85,153,85,103,152,152,158,158,159,85,140,160,161,158,159,160,161,158,159,160,161,158,159,160,161,158,159,160,161,158,159,160,161,158,159,160,161,158,159,160,161,158,159,160,161,158,159,160,161,158,159,88,159,152,159,153,159,158,158,159,152,152,85,
103,158,152,85,152,85,152,85,159,152,85,92,147,147,93,93,147,147,93,93,147,147,93,93,147,147,93,93,147,147,93,93,147,147,93,93,147,147,93,93,147,147,93,93,147,147,93,93,147,147,93,93,94,159,152,153,152,152,159,103,103,85,158,153,
158,159,158,152,103,158,158,158,159,103,158,159,103,103,153,159,152,103,103,103,152,103,158,159,85,153,159,153,152,153,103,103,159,153,153,153,158,153,85,103,153,152,103,159,152,103,152,159,103,153,103,85,103,159,158,103,152,153,103,85,159,153,153,103,
158,159,85,158,152,152,153,85,153,85,85,159,152,158,159,158,159,159,103,152,159,103,85,158,158,152,159,159,159,158,152,153,158,152,153,158,152,103,85,158,103,158,158,152,85,103,85,153,85,85,159,152,159,103,85,153,159,159,159,85,85,85,103,103,
152,153,158,159,103,159,158,159,85,103,103,103,158,152,153,152,153,158,153,158,85,158,103,158,103,85,159,152,158,85,159,158,103,103,153,153,153,158,158,153,152,85,158,85,152,152,158,103,159,152,159,152,159,158,153,159,158,158,159,158,85,103,158,159,
158,152,85,153,152,85,152,152,153,152,158,158,152,85,85,152,152,153,85,159,152,158,158,103,85,159,159,158,159,153,153,152,158,153,153,153,153,159,85,103,153,152,153,158,103,159,158,158,153,158,159,159,103,103,85,152,153,85,159,85,103,153,103,152,
103,152,153,159,158,158,103,158,159,85,158,103,152,85,152,153,158,152,153,158,153,103,85,153,153,158,85,153,152,158,85,153,153,159,159,159,103,158,103,85,158,85,158,152,103,153,152,158,158,158,103,152,158,159,159,103,159,159,152,152,152,159,85,158,
153,159,85,103,159,103,85,103,153,85,159,153,159,159,159,158,85,85,85,159,158,85,103,152,159,158,158,85,152,158,159,152,85,103,153,159,153,159,153,158,153,159,153,153,153,159,153,158,103,103,152,159,103,159,85,158,85,158,103,152,158,158,85,103,
153,153,153,159,152,152,152,152,85,152,152,152,158,158,152,85,159,85,85,85,103,159,103,158,158,153,153,159,152,158,159,85,159,159,85,158,152,159,103,158,159,152,159,153,153,153,158,153,158,85,158,153,159,153,159,159,103,152,159,103,103,158,158,159,
153,152,152,159,153,85,153,153,158,85,153,158,103,103,158,153,103,158,103,152,103,158,152,158,152,103,85,103,152,153,159,152,85,158,85,159,152,159,153,85,159,153,103,152,152,159,152,158,153,159,159,103,159,152,152,103,153,153,153,153,103,85,159,158,
158,159,158,85,152,85,159,159,152,158,152,103,152,153,85,152,103,103,153,153,152,103,159,158,159,159,85,159,152,158,153,85,153,159,153,153,153,153,153,85,152,103,152,159,159,85,153,158,158,159,85,85,152,158,159,85,152,153,158,85,153,152,153,153,
159,158,103,103,103,158,159,103,85,153,103,85,103,158,85,158,153,152,152,103,153,158,153,159,159,103,153,153,152,158,153,85,159,158,85,152,85,158,85,159,158,158,159,103,153,85,85,158,103,159,152,153,153,152,159,103,103,152,103,159,152,85,159,153,
153,153,158,158,85,85,152,103,153,153,85,153,159,159,159,158,85,152,159,153,158,158,103,153,158,158,152,85,85,85,152,153,85,152,103,103,159,103,103,85,85,153,103,159,158,158,153,159,153,103,158,85,159,103,85,152,159,159,103,152,85,85,152,153
</data>
 </layer>
</map>
